symbols/web/pedal_bike/materialsymbolsoutlined/pedal_bike_grad200fill1_40px.svg

<svg xmlns="http://www.w3.org/2000/svg" height="40" width="40"><path d="M8 33.625q-3.583 0-5.979-2.396t-2.396-6.021q0-3.625 2.396-6.02 2.396-2.396 6.021-2.396 3.125 0 5.396 1.937 2.27 1.938 2.77 4.896h1.584L14.5 14.5h-3.042v-3.042h8.334V14.5h-2l.791 2.292h8.709l-2.75-7.334h-4.417V6.375h4.333q1.084 0 1.896.5.813.5 1.146 1.5l3.042 8.417H32q3.5 0 5.938 2.416 2.437 2.417 2.437 5.917t-2.437 6q-2.438 2.5-5.938 2.5-3.042 0-5.354-1.979-2.313-1.979-2.938-4.979h-7.5q-.5 3-2.791 4.979Q11.125 33.625 8 33.625Zm13.042-10h2.708q.167-.958.583-1.937.417-.98 1.042-1.813h-5.708Zm9.375 1.875 2.875-1.042-1.625-4.583-2.959 1ZM8.208 26.667h4.917v-3.042H8.208Z"/></svg>

<svg xmlns="http://www.w3.org/2000/svg" height="40" width="40"><path d="M8 33.625Q4.417 33.625 2.021 31.229Q-0.375 28.833 -0.375 25.208Q-0.375 21.583 2.021 19.188Q4.417 16.792 8.042 16.792Q11.167 16.792 13.438 18.729Q15.708 20.667 16.208 23.625H17.792L14.5 14.5H11.458V11.458H19.792V14.5H17.792L18.583 16.792H27.292L24.542 9.458Q24.542 9.458 24.542 9.458Q24.542 9.458 24.542 9.458H20.125V6.375H24.458Q25.542 6.375 26.354 6.875Q27.167 7.375 27.5 8.375L30.542 16.792H32Q35.5 16.792 37.938 19.208Q40.375 21.625 40.375 25.125Q40.375 28.625 37.938 31.125Q35.5 33.625 32 33.625Q28.958 33.625 26.646 31.646Q24.333 29.667 23.708 26.667H16.208Q15.708 29.667 13.417 31.646Q11.125 33.625 8 33.625ZM21.042 23.625H23.75Q23.917 22.667 24.333 21.688Q24.75 20.708 25.375 19.875H19.667ZM30.417 25.5 33.292 24.458 31.667 19.875 28.708 20.875ZM8.208 26.667H13.125V23.625H8.208Z"/></svg>
